src/assets/images/logo.svg

<svg width="640" height="640" xmlns="http://www.w3.org/2000/svg" xmlns:xlink="http://www.w3.org/1999/xlink" preserveAspectRatio="xMidYMid meet">
 <defs>
  <path id="c2VhKFLfeY" d="m53,122.5c0,-3.3 1,-3.6 7.5,-2.9c5.3,0.7 5.6,0.8 5.3,3.3c-0.3,2.2 -0.8,2.6 -3.8,2.7c-1.9,0.1 -4.7,-0.1 -6.2,-0.3c-2.2,-0.3 -2.8,-1 -2.8,-2.8z"/>
  <path id="a3UM8anWSY" d="m81.5,114.4c3.4,-1.6 3.7,-1.6 5.3,0c2.1,2.1 0.8,4.5 -3.5,6.3c-2.5,1 -3.4,1 -4.8,-0.1c-2.5,-1.8 -1.4,-4.1 3,-6.2z"/>
  <path id="cXxdclrLi" d="m43,113.6c2.9,2 4,3.3 3.8,4.8c-0.4,3.1 -3.7,3 -8.3,-0.2c-7.7,-5.4 -3.4,-9.8 4.5,-4.6z"/>
  <path id="b1AZhSboc0" d="m94.5,95c-0.33,-0.97 -2,-5.8 -5,-14.5c-9,-3.06 -14,-4.76 -15,-5.1c-13.4,-4.6 -15,-5.3 -15,-7.4c0,-1.9 7,-6.3 47.5,-29.8c26.1,-15.1 48.7,-27.7 50.1,-27.9c1.5,-0.3 2.9,0 3.3,0.5c0.5,0.9 -13.5,83.3 -15,88.5c-0.8,2.5 -3.2,2.1 -12.6,-1.9c-4.5,-2 -9.3,-4 -10.5,-4.4c-1.9,-0.8 -3,0.2 -9.5,9c-5.3,7.2 -7.9,9.9 -9.5,10c-1.2,0 -2.5,-0.6 -3,-1.2c-0.4,-0.7 -3,-7.8 -5.8,-15.8zm17.4,-6.5c-2.6,-0.8 -2.5,-0.9 -3.3,4.5c-0.05,0.3 -0.28,1.8 -0.7,4.5c1.26,-1.5 1.96,-2.33 2.1,-2.5c1.1,-1.4 2.5,-3.3 3,-4.2c0.8,-1.3 0.5,-1.8 -1.1,-2.3zm6.2,-26.2c0.94,-1.32 5.64,-7.92 14.1,-19.8l-18.2,18.1l-18.2,18.1c1.08,3.42 1.68,5.32 1.8,5.7c1,3.1 2.2,5.6 2.6,5.6c0.5,0 0.8,0.6 0.7,1.3c-0.1,0.6 0,2.1 0.1,3.2c0.3,2.2 2.7,-6.6 2.9,-10.2c0.1,-1.3 6.4,-11.2 14.2,-22zm33.5,-35c-0.2,-0.2 -8.1,10.6 -17.7,23.9c-9.5,13.4 -18.3,25.7 -19.6,27.4c-0.15,0.21 -0.92,1.24 -2.3,3.1c7.68,3.3 11.95,5.13 12.8,5.5c7,3.1 13.4,5.7 14.2,5.7c1.2,0.1 2.7,-6.5 7.2,-32.6c3.2,-18 5.6,-32.8 5.4,-33zm-16.1,1.9c-1.2,0.6 -43.4,25 -56.5,32.6c-0.63,0.37 -3.76,2.24 -9.4,5.6c5.64,1.92 8.77,2.99 9.4,3.2c5.2,1.8 10.2,3.3 11,3.3c0.8,0.1 11.6,-10.1 24,-22.5c12.4,-12.5 22.1,-22.4 21.5,-22.2z"/>
  <path id="a9lfjvmGf" d="m53.7,119.9c0.5,-0.5 3.5,-0.7 6.7,-0.3c5.4,0.7 5.7,0.8 5.4,3.3c-0.3,2.2 -0.8,2.6 -3.8,2.8c-1.9,0.1 -4.6,-0.2 -6,-0.6c-2.6,-0.7 -3.9,-3.6 -2.3,-5.2z"/>
  <path id="c3TMFIC95T" d="m81.1,115c4.2,-2.2 6.9,-1.6 6.9,1.6c0,2.1 -7.2,5.4 -9.3,4.3c-2.8,-1.6 -2,-3.7 2.4,-5.9z"/>
  <path id="e8SnGuakRI" d="m34.6,112.6c0.9,-2.3 3.1,-2 8.1,1c3.4,1.9 4.3,3.1 4.1,4.7c-0.4,3 -3.6,3.1 -8,0.2c-4.3,-2.9 -5,-3.8 -4.2,-5.9z"/>
  <path id="h55eGdYck" d="m95,95.5c-2.3,-7.1 -4.8,-13.6 -5.4,-14.3c-0.7,-0.6 -7.7,-3.4 -15.6,-6c-11.9,-4 -14.6,-5.2 -14.8,-6.9c-0.3,-1.7 7.1,-6.3 48.3,-30.2c26.7,-15.4 49.4,-28.1 50.5,-28.1c1,0 2.1,0.4 2.5,0.9c0.4,0.8 -13,79.3 -15,87.9c-0.8,3.1 -3,2.8 -13.6,-1.8c-5.1,-2.2 -9.8,-4.1 -10.6,-4.2c-0.7,-0.2 -4.6,4 -8.6,9.2c-7.4,9.8 -10.6,11.9 -12.5,8.3c-0.5,-1 -2.8,-7.6 -5.2,-14.8zm14.5,-7.3c-0.1,0.1 -0.6,2.3 -1,4.8c-0.05,0.3 -0.28,1.8 -0.7,4.5c1.86,-2.1 2.89,-3.27 3.1,-3.5c1.6,-1.9 3,-3.8 3.1,-4.2c0,-0.7 -3.9,-2.2 -4.5,-1.6zm5.1,-20.8c5.9,-8.2 12.2,-17.1 14.2,-19.9c2.3,-3.3 -2.8,1.2 -14.7,13.1c-1.22,1.21 -7.32,7.24 -18.3,18.1c1.08,3.42 1.68,5.32 1.8,5.7c1,3.1 2.2,5.6 2.6,5.6c0.5,0 0.8,0.6 0.7,1.3c-0.1,0.6 0,2.1 0.1,3.2c0.3,2.1 2.7,-6.5 2.9,-10.1c0.1,-1.2 4.9,-8.8 10.7,-17zm37.4,-40.8c0,-0.8 -9.4,12.1 -35.3,48.5c-0.31,0.45 -1.88,2.68 -4.7,6.7c8.28,3.54 12.88,5.51 13.8,5.9c7.5,3.3 14,5.7 14.3,5.4c0.3,-0.3 3.1,-15.2 6.3,-33.1c3.1,-17.9 5.6,-32.9 5.6,-33.4zm-14.5,1.3c-18.9,10.92 -29.4,16.99 -31.5,18.2c-17.3,10 -32.6,18.8 -34,19.7c-2.4,1.5 -2.3,1.6 7,4.8c5.2,1.8 10.2,3.3 11,3.3c0.8,0.1 11.9,-10.3 24.5,-22.9c3.07,-3.08 10.73,-10.78 23,-23.1z"/>
 </defs>
 <g>
  <title>background</title>
  <rect fill="none" id="canvas_background" height="402" width="582" y="-1" x="-1"/>
 </g>
 <g>
  <title>Layer 1</title>
  <g stroke="null" id="svg_1">
   <g stroke="null" id="svg_2">
    <g stroke="null" id="svg_3">
     <use transform="matrix(4.676785945892334,0,0,4.676785945892334,-126.1564076736613,-40.444645404815674) " stroke="null" x="-1.710576" y="8.26995" id="svg_4" fill="#164e87" xlink:href="#c2VhKFLfeY"/>
     <g stroke="null" id="svg_5">
      <use transform="matrix(4.676785945892334,0,0,4.676785945892334,-126.1564076736613,-40.444645404815674) " stroke="#000000" x="-1.710576" y="8.26995" id="svg_6" stroke-opacity="0" fill-opacity="0" xlink:href="#c2VhKFLfeY"/>
     </g>
    </g>
    <g stroke="null" id="svg_7">
     <use transform="matrix(4.676785945892334,0,0,4.676785945892334,-126.1564076736613,-40.444645404815674) " stroke="null" x="-1.710576" y="8.26995" id="svg_8" fill="#164e87" xlink:href="#a3UM8anWSY"/>
     <g stroke="null" id="svg_9">
      <use transform="matrix(4.676785945892334,0,0,4.676785945892334,-126.1564076736613,-40.444645404815674) " stroke="#000000" x="-1.710576" y="8.26995" id="svg_10" stroke-opacity="0" fill-opacity="0" xlink:href="#a3UM8anWSY"/>
     </g>
    </g>
    <g stroke="null" id="svg_11">
     <use transform="matrix(4.676785945892334,0,0,4.676785945892334,-126.1564076736613,-40.444645404815674) " stroke="null" x="-1.710576" y="8.26995" id="svg_12" fill="#164e87" xlink:href="#cXxdclrLi"/>
     <g stroke="null" id="svg_13">
      <use transform="matrix(4.676785945892334,0,0,4.676785945892334,-126.1564076736613,-40.444645404815674) " stroke="#000000" x="-1.710576" y="8.26995" id="svg_14" stroke-opacity="0" fill-opacity="0" xlink:href="#cXxdclrLi"/>
     </g>
    </g>
    <g stroke="null" id="svg_15">
     <use transform="matrix(4.676785945892334,0,0,4.676785945892334,-126.1564076736613,-40.444645404815674) " stroke="null" x="-1.710576" y="8.26995" id="svg_16" fill="#164e87" xlink:href="#b1AZhSboc0"/>
     <g stroke="null" id="svg_17">
      <use transform="matrix(4.676785945892334,0,0,4.676785945892334,-126.1564076736613,-40.444645404815674) " stroke="#000000" x="-1.710576" y="8.26995" id="svg_18" stroke-opacity="0" fill-opacity="0" xlink:href="#b1AZhSboc0"/>
     </g>
    </g>
    <g stroke="null" id="svg_19">
     <use transform="matrix(4.676785945892334,0,0,4.676785945892334,-126.1564076736613,-40.444645404815674) " stroke="null" x="-1.710576" y="8.26995" id="svg_20" fill="#3d90e3" xlink:href="#a9lfjvmGf"/>
     <g stroke="null" id="svg_21">
      <use transform="matrix(4.676785945892334,0,0,4.676785945892334,-126.1564076736613,-40.444645404815674) " stroke="#000000" x="-1.710576" y="8.26995" id="svg_22" stroke-opacity="0" fill-opacity="0" xlink:href="#a9lfjvmGf"/>
     </g>
    </g>
    <g stroke="null" id="svg_23">
     <use transform="matrix(4.676785945892334,0,0,4.676785945892334,-126.1564076736613,-40.444645404815674) " stroke="null" x="-1.710576" y="8.26995" id="svg_24" fill="#3d90e3" xlink:href="#c3TMFIC95T"/>
     <g stroke="null" id="svg_25">
      <use transform="matrix(4.676785945892334,0,0,4.676785945892334,-126.1564076736613,-40.444645404815674) " stroke="#000000" x="-1.710576" y="8.26995" id="svg_26" stroke-opacity="0" fill-opacity="0" xlink:href="#c3TMFIC95T"/>
     </g>
    </g>
    <g stroke="null" id="svg_27">
     <use transform="matrix(4.676785945892334,0,0,4.676785945892334,-126.1564076736613,-40.444645404815674) " stroke="null" x="-1.710576" y="8.26995" id="svg_28" fill="#3d90e3" xlink:href="#e8SnGuakRI"/>
     <g stroke="null" id="svg_29">
      <use transform="matrix(4.676785945892334,0,0,4.676785945892334,-126.1564076736613,-40.444645404815674) " stroke="#000000" x="-1.710576" y="8.26995" id="svg_30" stroke-opacity="0" fill-opacity="0" xlink:href="#e8SnGuakRI"/>
     </g>
    </g>
    <g stroke="null" id="svg_31">
     <use transform="matrix(4.676785945892334,0,0,4.676785945892334,-126.1564076736613,-40.444645404815674) " stroke="null" x="-1.710576" y="8.26995" id="svg_32" fill="#3d90e3" xlink:href="#h55eGdYck"/>
     <g stroke="null" id="svg_33">
      <use transform="matrix(4.676785945892334,0,0,4.676785945892334,-126.1564076736613,-40.444645404815674) " stroke="#000000" x="-1.710576" y="8.26995" id="svg_34" stroke-opacity="0" fill-opacity="0" xlink:href="#h55eGdYck"/>
     </g>
    </g>
   </g>
  </g>
 </g>
</svg>

<?xml version="1.0" encoding="UTF-8" standalone="no"?>
<!DOCTYPE svg PUBLIC "-//W3C//DTD SVG 1.1//EN" "http://www.w3.org/Graphics/SVG/1.1/DTD/svg11.dtd">
<svg version="1.1" xmlns="http://www.w3.org/2000/svg" xmlns:xlink="http://www.w3.org/1999/xlink" preserveAspectRatio="xMidYMid meet" viewBox="0 0 640 640" width="1797.12" height="1797.12"><defs><path d="M53 122.5C53 119.2 54 118.9 60.5 119.6C65.8 120.3 66.1 120.4 65.8 122.9C65.5 125.1 65 125.5 62 125.6C60.1 125.7 57.3 125.5 55.8 125.3C53.6 125 53 124.3 53 122.5Z" id="c2VhKFLfeY"></path><path d="M81.5 114.4C84.9 112.8 85.2 112.8 86.8 114.4C88.9 116.5 87.6 118.9 83.3 120.7C80.8 121.7 79.9 121.7 78.5 120.6C76 118.8 77.1 116.5 81.5 114.4Z" id="a3UM8anWSY"></path><path d="M43 113.6C45.9 115.6 47 116.9 46.8 118.4C46.4 121.5 43.1 121.4 38.5 118.2C30.8 112.8 35.1 108.4 43 113.6Z" id="cXxdclrLi"></path><path d="M94.5 95C94.17 94.03 92.5 89.2 89.5 80.5C80.5 77.44 75.5 75.74 74.5 75.4C61.1 70.8 59.5 70.1 59.5 68C59.5 66.1 66.5 61.7 107 38.2C133.1 23.1 155.7 10.5 157.1 10.3C158.6 10 160 10.3 160.4 10.8C160.9 11.7 146.9 94.1 145.4 99.3C144.6 101.8 142.2 101.4 132.8 97.4C128.3 95.4 123.5 93.4 122.3 93C120.4 92.2 119.3 93.2 112.8 102C107.5 109.2 104.9 111.9 103.3 112C102.1 112 100.8 111.4 100.3 110.8C99.9 110.1 97.3 103 94.5 95ZM111.9 88.5C109.3 87.7 109.4 87.6 108.6 93C108.55 93.3 108.32 94.8 107.9 97.5C109.16 96 109.86 95.17 110 95C111.1 93.6 112.5 91.7 113 90.8C113.8 89.5 113.5 89 111.9 88.5ZM118.1 62.3C119.04 60.98 123.74 54.38 132.2 42.5L114 60.6L95.8 78.7C96.88 82.12 97.48 84.02 97.6 84.4C98.6 87.5 99.8 90 100.2 90C100.7 90 101 90.6 100.9 91.3C100.8 91.9 100.9 93.4 101 94.5C101.3 96.7 103.7 87.9 103.9 84.3C104 83 110.3 73.1 118.1 62.3ZM151.6 27.3C151.4 27.1 143.5 37.9 133.9 51.2C124.4 64.6 115.6 76.9 114.3 78.6C114.15 78.81 113.38 79.84 112 81.7C119.68 85 123.95 86.83 124.8 87.2C131.8 90.3 138.2 92.9 139 92.9C140.2 93 141.7 86.4 146.2 60.3C149.4 42.3 151.8 27.5 151.6 27.3ZM135.5 29.2C134.3 29.8 92.1 54.2 79 61.8C78.37 62.17 75.24 64.04 69.6 67.4C75.24 69.32 78.37 70.39 79 70.6C84.2 72.4 89.2 73.9 90 73.9C90.8 74 101.6 63.8 114 51.4C126.4 38.9 136.1 29 135.5 29.2Z" id="b1AZhSboc0"></path><path d="M53.7 119.9C54.2 119.4 57.2 119.2 60.4 119.6C65.8 120.3 66.1 120.4 65.8 122.9C65.5 125.1 65 125.5 62 125.7C60.1 125.8 57.4 125.5 56 125.1C53.4 124.4 52.1 121.5 53.7 119.9Z" id="a9lfjvmGf"></path><path d="M81.1 115C85.3 112.8 88 113.4 88 116.6C88 118.7 80.8 122 78.7 120.9C75.9 119.3 76.7 117.2 81.1 115Z" id="c3TMFIC95T"></path><path d="M34.6 112.6C35.5 110.3 37.7 110.6 42.7 113.6C46.1 115.5 47 116.7 46.8 118.3C46.4 121.3 43.2 121.4 38.8 118.5C34.5 115.6 33.8 114.7 34.6 112.6Z" id="e8SnGuakRI"></path><path d="M95 95.5C92.7 88.4 90.2 81.9 89.6 81.2C88.9 80.6 81.9 77.8 74 75.2C62.1 71.2 59.4 70 59.2 68.3C58.9 66.6 66.3 62 107.5 38.1C134.2 22.7 156.9 10 158 10C159 10 160.1 10.4 160.5 10.9C160.9 11.7 147.5 90.2 145.5 98.8C144.7 101.9 142.5 101.6 131.9 97C126.8 94.8 122.1 92.9 121.3 92.8C120.6 92.6 116.7 96.8 112.7 102C105.3 111.8 102.1 113.9 100.2 110.3C99.7 109.3 97.4 102.7 95 95.5ZM109.5 88.2C109.4 88.3 108.9 90.5 108.5 93C108.45 93.3 108.22 94.8 107.8 97.5C109.66 95.4 110.69 94.23 110.9 94C112.5 92.1 113.9 90.2 114 89.8C114 89.1 110.1 87.6 109.5 88.2ZM114.6 67.4C120.5 59.2 126.8 50.3 128.8 47.5C131.1 44.2 126 48.7 114.1 60.6C112.88 61.81 106.78 67.84 95.8 78.7C96.88 82.12 97.48 84.02 97.6 84.4C98.6 87.5 99.8 90 100.2 90C100.7 90 101 90.6 100.9 91.3C100.8 91.9 100.9 93.4 101 94.5C101.3 96.6 103.7 88 103.9 84.4C104 83.2 108.8 75.6 114.6 67.4ZM152 26.6C152 25.8 142.6 38.7 116.7 75.1C116.39 75.55 114.82 77.78 112 81.8C120.28 85.34 124.88 87.31 125.8 87.7C133.3 91 139.8 93.4 140.1 93.1C140.4 92.8 143.2 77.9 146.4 60C149.5 42.1 152 27.1 152 26.6ZM137.5 27.9C118.6 38.82 108.1 44.89 106 46.1C88.7 56.1 73.4 64.9 72 65.8C69.6 67.3 69.7 67.4 79 70.6C84.2 72.4 89.2 73.9 90 73.9C90.8 74 101.9 63.6 114.5 51C117.57 47.92 125.23 40.22 137.5 27.9Z" id="h55eGdYck"></path></defs><g><g><g><use xlink:href="#c2VhKFLfeY" opacity="1" fill="#164e87" fill-opacity="1"></use><g><use xlink:href="#c2VhKFLfeY" opacity="1" fill-opacity="0" stroke="#000000" stroke-width="1" stroke-opacity="0"></use></g></g><g><use xlink:href="#a3UM8anWSY" opacity="1" fill="#164e87" fill-opacity="1"></use><g><use xlink:href="#a3UM8anWSY" opacity="1" fill-opacity="0" stroke="#000000" stroke-width="1" stroke-opacity="0"></use></g></g><g><use xlink:href="#cXxdclrLi" opacity="1" fill="#164e87" fill-opacity="1"></use><g><use xlink:href="#cXxdclrLi" opacity="1" fill-opacity="0" stroke="#000000" stroke-width="1" stroke-opacity="0"></use></g></g><g><use xlink:href="#b1AZhSboc0" opacity="1" fill="#164e87" fill-opacity="1"></use><g><use xlink:href="#b1AZhSboc0" opacity="1" fill-opacity="0" stroke="#000000" stroke-width="1" stroke-opacity="0"></use></g></g><g><use xlink:href="#a9lfjvmGf" opacity="1" fill="#3d90e3" fill-opacity="1"></use><g><use xlink:href="#a9lfjvmGf" opacity="1" fill-opacity="0" stroke="#000000" stroke-width="1" stroke-opacity="0"></use></g></g><g><use xlink:href="#c3TMFIC95T" opacity="1" fill="#3d90e3" fill-opacity="1"></use><g><use xlink:href="#c3TMFIC95T" opacity="1" fill-opacity="0" stroke="#000000" stroke-width="1" stroke-opacity="0"></use></g></g><g><use xlink:href="#e8SnGuakRI" opacity="1" fill="#3d90e3" fill-opacity="1"></use><g><use xlink:href="#e8SnGuakRI" opacity="1" fill-opacity="0" stroke="#000000" stroke-width="1" stroke-opacity="0"></use></g></g><g><use xlink:href="#h55eGdYck" opacity="1" fill="#3d90e3" fill-opacity="1"></use><g><use xlink:href="#h55eGdYck" opacity="1" fill-opacity="0" stroke="#000000" stroke-width="1" stroke-opacity="0"></use></g></g></g></g></svg>
